X: 1
T:Thomas Sander
M:C
L:1/8
Q:80
C:arr. Russ Spaulding
S:March
K:HP
{g}Ad{gdG}d3/2e/2{g}f2{g}ed|
{g}GB{G}Bd{g}A3{GAG}A|
{g}dA{Gdc}d3/2e/2{g}fd{g}A2|  !
{g}fda3/2f/2{g}e2{G}ea|
{g}Ad{gdG}d3/2e/2{g}f2{g}ed|
{g}GB{G}Bd{g}A3{GAG}A|  !
{g}Bg{fg}fe{ag}a3/2f/2{Gdc}d3/2B/2|
{g}Ag{fg}f3/2e/2{Gdc}d2{gdG}d2|]
{g}c3/2d/2{g}eAgf{g}e2|  !
{Gdc}d3/2c/2{g}de{g}fd{g}A3|
{g}B3/2c/2{g}dBA{Gdc}d{g}f2|
{g}fda3/2f/2{g}e2{G}ea|]  !
{g}Ad{gdG}d3/2e/2{g}f2{g}ed|
{g}GB{G}Bd{g}A3{GAG}A|
{g}Bg{fg}fe{ag}a3/2f/2{Gdc}d3/2B/2|  !
{g}Ag{fg}f3/2e/2{Gdc}d2{gdG}d2|]
